X: 39010
T: Swallowtail, The
R: jig
M: 6/8
K: Gmajor
A/B/|cAA eAA|cBA eAA|BGG dGG|gfe dcB|
cAA eAA|cBA d2 f|gfe dcB|cAA A2:|
|:d|efg a2 b|a2 b age|efg a2 b|age g2 d|
efg a2 b|a2 b age|gfe dcB|cAA A2:|

